z_dist/img/icons/crypto/ethereum-ETH.svg

<svg width="64" height="64" viewBox="0 0 64 64" fill="none" xmlns="http://www.w3.org/2000/svg">
<g clip-path="url(#clip0_233_414)">
<rect width="64" height="64" rx="4" fill="white"/>
<path d="M32.0338 8.27089V8.29453C32.0574 8.41276 32.0574 8.55463 32.0574 8.6965V25.7448C32.0338 25.8394 31.9629 25.863 31.8919 25.9103C31.3954 26.1468 30.9225 26.3596 30.4259 26.5724C29.7402 26.8798 29.0308 27.2108 28.3451 27.5182L25.8624 28.6532C25.1767 28.9605 24.4909 29.2679 23.8289 29.5753C23.0249 29.9536 22.1974 30.3083 21.3934 30.6867C20.7077 30.994 20.022 31.3251 19.3126 31.6325C18.7451 31.8926 18.1776 32.129 17.6338 32.3891C17.5865 32.4128 17.5392 32.4364 17.4919 32.4364C17.4683 32.4364 17.4683 32.4364 17.4446 32.4128L18.0831 31.3487C19.3126 29.3152 20.5185 27.3054 21.7481 25.2719C23.0486 23.0965 24.3727 20.9211 25.6732 18.7458C26.8791 16.7359 28.1087 14.7261 29.3146 12.7162C30.1895 11.2502 31.088 9.78419 31.9629 8.31818C31.9865 8.27089 32.0102 8.24724 32.0102 8.19995H32.0338C32.0102 8.2236 32.0338 8.24724 32.0338 8.27089Z" fill="#8A92B2"/>
<path d="M46.5511 32.4129L46.5747 32.4365L43.0988 34.4937L32.1747 40.9488C32.1274 40.9725 32.0801 40.9961 32.0565 41.0198C31.9855 41.0198 31.9855 40.9488 31.9855 40.9252V40.7124V26.0996C31.9855 26.0286 31.9855 25.9341 32.0092 25.8631C32.0328 25.7685 32.1038 25.7922 32.1747 25.8158C32.4821 25.9577 32.8131 26.0996 33.1205 26.2414C34.0427 26.6671 34.9648 27.0927 35.887 27.4946C36.691 27.8493 37.4712 28.2276 38.2752 28.5823C39.0791 28.937 39.8831 29.3153 40.687 29.67C41.3727 29.9774 42.0821 30.3084 42.7678 30.6158C43.4535 30.9232 44.1629 31.2543 44.8486 31.5616C45.3924 31.7981 45.9363 32.0582 46.4801 32.2946C46.4801 32.3656 46.5038 32.3892 46.5511 32.4129Z" fill="#454A75"/>
<path d="M32.0328 55.7034C32.0328 55.7271 32.0092 55.7507 32.0092 55.7744H31.9855C31.9855 55.7271 31.9382 55.7034 31.9146 55.6562C30.4486 53.599 28.9826 51.5182 27.5166 49.4611C26.0269 47.3567 24.5136 45.2286 23.024 43.1241C21.5816 41.0906 20.1156 39.0335 18.6732 37C18.2949 36.4562 17.9166 35.936 17.5382 35.3921C17.5146 35.3448 17.491 35.3212 17.4437 35.2502C17.5146 35.2502 17.5619 35.2975 17.5855 35.3212C19.6427 36.5271 21.6762 37.733 23.7333 38.9389C26.0979 40.334 28.4387 41.7291 30.8033 43.1241L32.0092 43.8335C32.0565 43.8808 32.0565 43.9281 32.0565 43.9754V55.3724C32.0565 55.4906 32.0565 55.6089 32.0328 55.7034Z" fill="#8A92B2"/>
<path d="M17.42 32.46V32.4363C18.1767 32.1053 18.9097 31.7506 19.6663 31.4196C20.6358 30.9703 21.6052 30.5447 22.5747 30.0954C23.3077 29.7644 24.0643 29.4097 24.7974 29.0787C25.885 28.5821 26.9491 28.1092 28.0368 27.6127C28.7698 27.2816 29.5028 26.9506 30.2594 26.5959C30.7796 26.3595 31.3235 26.123 31.8437 25.8866C31.8909 25.8629 31.9619 25.8393 31.9855 25.792C32.0092 25.792 32.0092 25.8156 31.9855 25.8393V40.8541C31.9855 40.925 31.9619 40.9959 32.0092 41.0432C31.9619 41.1142 31.9146 41.0432 31.8909 41.0196C31.6781 40.9013 31.4653 40.7831 31.2525 40.6413C26.689 37.9457 22.1018 35.2265 17.5382 32.5309C17.5146 32.5073 17.4673 32.4836 17.42 32.46Z" fill="#62688F"/>
<path d="M46.5038 35.2502H46.5274C46.5274 35.2975 46.4801 35.3448 46.4565 35.3921C42.1057 41.5163 37.755 47.664 33.4043 53.7882C32.955 54.4266 32.4821 55.065 32.0328 55.7034C32.0092 55.6798 32.0092 55.6562 32.0092 55.6325V55.4906V44.0227V43.8099C33.0023 43.2187 33.9717 42.6512 34.9649 42.0601C38.7954 39.7901 42.6259 37.5438 46.4328 35.2739C46.4565 35.2975 46.4801 35.2739 46.5038 35.2502Z" fill="#62688F"/>
<path d="M32.0092 25.8393V25.792V25.6501V8.4836C32.0092 8.41266 31.9855 8.36537 32.0328 8.29443C36.8328 16.2629 41.6328 24.2077 46.4092 32.1762C46.4565 32.2471 46.5274 32.3417 46.551 32.4363C46.22 32.3181 45.9126 32.1526 45.6052 32.0107C45.2269 31.8452 44.8249 31.656 44.4466 31.4905C44.2102 31.3723 43.9501 31.2777 43.7136 31.1595C43.3116 30.9703 42.9097 30.8048 42.5077 30.6156C42.2712 30.521 42.0348 30.4028 41.7983 30.2846L40.2377 29.5752C39.9776 29.457 39.7176 29.3388 39.4338 29.2205L38.2988 28.724C38.0624 28.6294 37.8259 28.5112 37.5895 28.393L36.0289 27.6836C35.7688 27.5654 35.5087 27.4471 35.2249 27.3289L34.09 26.8324C33.8299 26.7141 33.5934 26.5959 33.3333 26.4777C32.8841 26.2649 32.4348 26.0521 31.9619 25.8629C32.0328 25.8393 32.0092 25.8393 32.0092 25.8393Z" fill="#62688F"/>
</g>
<defs>
<clipPath id="clip0_233_414">
<rect width="64" height="64" fill="white"/>
</clipPath>
</defs>
</svg>

<svg width="64" height="64" fill="none" xmlns="http://www.w3.org/2000/svg"><g clip-path="url(#clip0_233_414)"><rect width="64" height="64" rx="4" fill="#fff"/><path d="M32.034 8.27v.025c.023.118.023.26.023.402v17.048c-.023.094-.094.118-.165.165-.497.237-.97.45-1.466.662-.686.308-1.395.639-2.08.946l-2.484 1.135c-.685.308-1.371.615-2.033.922-.804.379-1.632.733-2.436 1.112-.685.307-1.371.638-2.08.945-.568.26-1.135.497-1.68.757a.335.335 0 01-.141.047c-.024 0-.024 0-.047-.023l.638-1.064c1.23-2.034 2.436-4.044 3.665-6.077 1.3-2.175 2.625-4.35 3.925-6.526 1.206-2.01 2.436-4.02 3.642-6.03.874-1.466 1.773-2.932 2.648-4.398.023-.047.047-.07.047-.118h.024c-.024.024 0 .047 0 .07z" fill="#8A92B2"/><path d="M46.551 32.413l.024.024-3.476 2.057-10.924 6.455a.488.488 0 00-.118.07c-.072 0-.072-.07-.072-.094V26.1c0-.071 0-.166.024-.237.024-.095.095-.07.166-.047.307.142.638.284.946.425.922.426 1.844.852 2.766 1.254.804.354 1.584.733 2.388 1.087.804.355 1.608.733 2.412 1.088.686.307 1.395.638 2.08.946.686.307 1.396.638 2.082.946.543.236 1.087.496 1.631.733 0 .07.024.094.071.118z" fill="#454A75"/><path d="M32.033 55.703c0 .024-.024.048-.024.071h-.024c0-.047-.047-.07-.07-.118-1.466-2.057-2.932-4.138-4.398-6.195-1.49-2.104-3.003-4.232-4.493-6.337-1.442-2.033-2.908-4.09-4.35-6.124-.38-.544-.757-1.064-1.136-1.608-.023-.047-.047-.07-.094-.142.07 0 .118.047.142.071 2.057 1.206 4.09 2.412 6.147 3.618 2.365 1.395 4.706 2.79 7.07 4.185l1.206.71c.047.047.047.094.047.141v11.397c0 .119 0 .237-.023.331z" fill="#8A92B2"/><path d="M17.42 32.46v-.024c.757-.33 1.49-.685 2.246-1.016.97-.45 1.94-.875 2.909-1.325.733-.33 1.49-.685 2.222-1.016 1.088-.497 2.152-.97 3.24-1.466.733-.331 1.466-.662 2.222-1.017.52-.236 1.064-.473 1.585-.71.047-.023.118-.047.141-.094.024 0 .024.024 0 .047v15.015c0 .071-.023.142.024.19-.047.07-.094 0-.118-.024-.213-.119-.426-.237-.638-.379-4.564-2.695-9.151-5.414-13.715-8.11a.515.515 0 00-.118-.071zm29.084 2.79h.023c0 .047-.047.095-.07.142-4.351 6.124-8.702 12.272-13.053 18.396-.449.639-.922 1.277-1.371 1.915-.024-.023-.024-.047-.024-.07V43.81c.993-.591 1.963-1.159 2.956-1.75 3.83-2.27 7.66-4.516 11.468-6.786.023.023.047 0 .07-.024z" fill="#62688F"/><path d="M32.01 25.84V8.483c0-.071-.024-.119.023-.19 4.8 7.969 9.6 15.914 14.376 23.882.047.071.118.166.142.26-.331-.118-.638-.283-.946-.425-.378-.166-.78-.355-1.158-.52-.237-.119-.497-.213-.733-.331-.402-.19-.804-.355-1.206-.544-.237-.095-.473-.213-.71-.331l-1.56-.71c-.26-.118-.52-.236-.804-.354l-1.135-.497a9.552 9.552 0 01-.71-.331l-1.56-.71c-.26-.118-.52-.236-.804-.354l-1.135-.497c-.26-.118-.497-.236-.757-.354-.449-.213-.898-.426-1.371-.615.07-.024.047-.024.047-.024z" fill="#62688F"/></g><defs><clipPath id="clip0_233_414"><path fill="#fff" d="M0 0h64v64H0z"/></clipPath></defs></svg>
